dist/images/svg/sprite/money-bag-broken.svg

<svg width="37" height="36" viewBox="0 0 37 36" fill="none" xmlns="http://www.w3.org/2000/svg">
<path d="M5.59931 31.2422C7.35581 33.0002 10.1848 33.0002 15.8413 33.0002H21.8413C27.4978 33.0002 30.3268 33.0002 32.0833 31.2422C33.8413 29.4857 33.8413 26.6567 33.8413 21.0002C33.8413 19.2452 33.8413 17.7632 33.7888 16.5002M32.0833 10.7582C30.3268 9.00024 27.4978 9.00024 21.8413 9.00024H15.8413C10.1848 9.00024 7.35581 9.00024 5.59931 10.7582C3.84131 12.5147 3.84131 15.3437 3.84131 21.0002C3.84131 22.7552 3.84131 24.2372 3.89381 25.5002M18.8413 3.00024C21.6703 3.00024 23.0833 3.00024 23.9623 3.87924C24.8413 4.75824 24.8413 6.17124 24.8413 9.00024M13.7203 3.87924C12.8413 4.75824 12.8413 6.17124 12.8413 9.00024" stroke="black" stroke-width="0.893808" stroke-linecap="round"/>
<path d="M18.8413 25.9997C20.4988 25.9997 21.8413 24.8807 21.8413 23.5007C21.8413 22.1207 20.4988 21.0002 18.8413 21.0002C17.1838 21.0002 15.8413 19.8812 15.8413 18.4997C15.8413 17.1197 17.1838 16.0007 18.8413 16.0007M18.8413 25.9997C17.1838 25.9997 15.8413 24.8807 15.8413 23.5007M18.8413 25.9997V27.0002M18.8413 16.0007V15.0002M18.8413 16.0007C20.4988 16.0007 21.8413 17.1197 21.8413 18.4997" stroke="black" stroke-width="0.893808" stroke-linecap="round"/>
</svg>

<svg width="37" height="36" fill="none" xmlns="http://www.w3.org/2000/svg"><path d="M5.6 31.242C7.355 33 10.184 33 15.84 33h6c5.657 0 8.486 0 10.242-1.758 1.758-1.756 1.758-4.585 1.758-10.242 0-1.755 0-3.237-.052-4.5m-1.706-5.742C30.327 9 27.498 9 21.841 9h-6C10.185 9 7.356 9 5.6 10.758 3.841 12.515 3.841 15.344 3.841 21c0 1.755 0 3.237.053 4.5M18.84 3c2.83 0 4.242 0 5.121.88.88.878.88 2.291.88 5.12M13.72 3.88c-.879.878-.879 2.291-.879 5.12" stroke="#000" stroke-width=".894" stroke-linecap="round"/><path d="M18.841 26c1.658 0 3-1.12 3-2.5s-1.342-2.5-3-2.5c-1.657 0-3-1.119-3-2.5 0-1.38 1.343-2.5 3-2.5m0 10c-1.657 0-3-1.12-3-2.5m3 2.5v1m0-11v-1m0 1c1.658 0 3 1.12 3 2.5" stroke="#000" stroke-width=".894" stroke-linecap="round"/></svg>
